public/images/house-icon-services.svg

<svg fill="none" height="44" viewBox="0 0 46 44" width="46" xmlns="http://www.w3.org/2000/svg" xmlns:xlink="http://www.w3.org/1999/xlink"><clipPath id="a"><path d="m0 0h46v44h-46z"/></clipPath><g clip-path="url(#a)" fill="#7e755d"><path d="m11.1815 12.8219c-6.03293 5.7234-11.008378 10.4843-11.069054 10.5875-.2080329.3437-.1386887.7304.182028 1.0484.338053.3352.728116.3867 1.100836.1375.12136-.0773 4.83676-4.5289 10.47969-9.8828 5.6515-5.34531 10.2889-9.72813 10.3149-9.72813s4.7154 4.41719 10.4103 9.82263c5.6949 5.4055 10.4276 9.8485 10.5143 9.8828.5461.2149 1.1529-.1632 1.2309-.7562.0433-.275.0087-.4039-.156-.6188-.1821-.2492-21.8695-20.84839-21.9908-20.88277-.026-.00859-4.9841 4.66641-11.0171 10.38987z"/><path d="m29.1677 5.60313c-.3208.17187-.4768.44687-.4768.825 0 .30078.052.42109.2514.62734l.2514.24922h2.9558 2.9558v2.79301c0 3.0851.026 3.2742.5114 3.5148.3294.1719.5547.1719.8841 0 .5028-.2492.5114-.3523.5114-4.41718v-3.69532h-3.8312c-2.6265.0086-3.892.03438-4.0133.10313z"/><path d="m6.09336 23.925c-.58076.2578-.54609-.3781-.54609 10.3641v9.7109h6.45763 6.4577l.0174-5.9469.026-5.9554h3.6839 3.6839l.026 5.9554.0173 5.9469h6.4577 6.4577v-9.3328-9.3328l-.2947-.2922c-.2081-.2063-.3727-.2922-.5634-.2922-.3554 0-.7195.1891-.8582.4469-.078.1547-.1127 2.157-.13 8.5765l-.0173 8.3789-4.6114.0258-4.6201.0172v-5.9726-5.9727h-5.5475-5.5476v5.9727 5.9726l-4.6113-.0172-4.6201-.0258-.04334-8.9117-.04334-8.9203-.21671-.2148c-.27737-.2664-.65877-.3352-1.01415-.1805z"/></g></svg>

<svg width="46" height="44" viewBox="0 0 46 44" fill="none" xmlns="http://www.w3.org/2000/svg">
<g clip-path="url(#clip0_22_157)">
<path d="M11.1815 12.8219C5.14857 18.5453 0.173122 23.3062 0.112446 23.4094C-0.0955869 23.7531 -0.0262427 24.1398 0.294474 24.4578C0.632527 24.793 1.02259 24.8445 1.39531 24.5953C1.51667 24.518 6.23207 20.0664 11.875 14.7125C17.5265 9.36719 22.1639 4.98437 22.1899 4.98437C22.2159 4.98437 26.9053 9.40156 32.6002 14.807C38.2951 20.2125 43.0278 24.6555 43.1145 24.6898C43.6606 24.9047 44.2674 24.5266 44.3454 23.9336C44.3887 23.6586 44.3541 23.5297 44.1894 23.3148C44.0073 23.0656 22.3199 2.46641 22.1986 2.43203C22.1726 2.42344 17.2145 7.09844 11.1815 12.8219Z" fill="#7E755D"/>
<path d="M29.1677 5.60313C28.8469 5.775 28.6909 6.05 28.6909 6.42813C28.6909 6.72891 28.7429 6.84922 28.9423 7.05547L29.1937 7.30469H32.1495H35.1053V10.0977C35.1053 13.1828 35.1313 13.3719 35.6167 13.6125C35.9461 13.7844 36.1714 13.7844 36.5008 13.6125C37.0036 13.3633 37.0122 13.2602 37.0122 9.19532V5.5H33.181C30.5545 5.5086 29.289 5.53438 29.1677 5.60313Z" fill="#7E755D"/>
<path d="M6.09336 23.925C5.5126 24.1828 5.54727 23.5469 5.54727 34.2891V44H12.0049H18.4626L18.48 38.0531L18.506 32.0977H22.1899H25.8738L25.8998 38.0531L25.9171 44H32.3748H38.8325V34.6672V25.3344L38.5378 25.0422C38.3297 24.8359 38.1651 24.75 37.9744 24.75C37.619 24.75 37.2549 24.9391 37.1162 25.1969C37.0382 25.3516 37.0035 27.3539 36.9862 33.7734L36.9689 42.1523L32.3575 42.1781L27.7374 42.1953V36.2227V30.25H22.1899H16.6423V36.2227V42.1953L12.031 42.1781L7.4109 42.1523L7.36756 33.2406L7.32422 24.3203L7.10751 24.1055C6.83014 23.8391 6.44874 23.7703 6.09336 23.925Z" fill="#7E755D"/>
</g>
<defs>
<clipPath id="clip0_22_157">
<rect width="46" height="44" fill="white"/>
</clipPath>
</defs>
</svg>
